images_sukapura_svg/cmd/sc_underlinedouble.svg

<svg viewBox="0 0 16 16" xmlns="http://www.w3.org/2000/svg">



     /&amp;amp;gt;
 <g fill="#69696e"><path d="m12.983245-.00000046.018912 7.40444806c-.0063 1.2986063-.416088 2.3608157-1.229265 3.1866284-.8069.825813-1.9037812 1.289151-3.2906425 1.390014l-.4822495.01891c-1.5066355 0-2.7075312-.406602-3.6026871-1.219807-.8951559-.8132047-1.3490377-1.9321492-1.3616456-3.3568337l-.0189115-7.42335976h1.7966157l.0189115 7.36662456c.00256.9960153.2742203 1.7714002.8226608 2.3261449.5484406.54844 1.330126.82266 2.3450562.82266 1.0275381 0 1.8123756-.27422 2.354513-.82266.54844-.5484407.825213-1.3206736.822659-2.316689l-.018911-7.37608046z"/><rect height="1" ry=".5" width="14" x="1" y="15"/><rect height="1" ry=".5" width="14" x="1" y="13"/></g></svg>

<?xml version="1.0" encoding="UTF-8" standalone="no"?>
<svg
   xmlns:dc="http://purl.org/dc/elements/1.1/"
   xmlns:cc="http://creativecommons.org/ns#"
   xmlns:rdf="http://www.w3.org/1999/02/22-rdf-syntax-ns#"
   xmlns:svg="http://www.w3.org/2000/svg"
   xmlns="http://www.w3.org/2000/svg"
   xmlns:sodipodi="http://sodipodi.sourceforge.net/DTD/sodipodi-0.dtd"
   xmlns:inkscape="http://www.inkscape.org/namespaces/inkscape"
   viewBox="0 0 16 16"
   version="1.1"
   id="svg4"
   sodipodi:docname="sc_underlinedouble.svg"
   inkscape:export-filename="/home/rizmut/Documents/Rizmut/Github/libreoffice-style-sukapura/images_sukapura/cmd/sc_underlinedouble.png"
   inkscape:export-xdpi="96"
   inkscape:export-ydpi="96"
   inkscape:version="0.92.3 (2405546, 2018-03-11)"><metadata
   id="metadata10">
  <rdf:RDF>
    <cc:Work
       rdf:about="">
      <dc:format>image/svg+xml</dc:format>
      <dc:type
         rdf:resource="http://purl.org/dc/dcmitype/StillImage" />
    </cc:Work>
  </rdf:RDF>
</metadata>
<defs
   id="defs8" />
<sodipodi:namedview
   pagecolor="#ffffff"
   bordercolor="#666666"
   borderopacity="1"
   objecttolerance="10"
   gridtolerance="10"
   guidetolerance="10"
   inkscape:pageopacity="0"
   inkscape:pageshadow="2"
   inkscape:window-width="1366"
   inkscape:window-height="692"
   id="namedview6"
   showgrid="true"
   inkscape:zoom="14.75"
   inkscape:cx="-4.0743735"
   inkscape:cy="2.1804717"
   inkscape:window-x="0"
   inkscape:window-y="0"
   inkscape:window-maximized="1"
   inkscape:current-layer="svg4">
  <inkscape:grid
     type="xygrid"
     id="grid817" />
</sodipodi:namedview>



     /&amp;gt;
 <g
   aria-label="U"
   style="font-style:normal;font-weight:normal;font-size:19.36562538px;line-height:1.25;font-family:sans-serif;letter-spacing:0px;word-spacing:0px;fill:#69696e;fill-opacity:1;stroke:none;stroke-width:0.4841406"
   id="text821">
  <path
     d="M 12.983245,-4.61936e-7 13.002157,7.4044476 c -0.0063,1.2986063 -0.416088,2.3608157 -1.229265,3.1866284 -0.8069,0.825813 -1.9037812,1.289151 -3.2906425,1.390014 L 8,12 C 6.4933645,12 5.2924688,11.593398 4.3973129,10.780193 3.502157,9.9669883 3.0482752,8.8480438 3.0356673,7.4233593 L 3.0167558,-4.61936e-7 H 4.8133715 L 4.832283,7.3666241 c 0.00256,0.9960153 0.2742203,1.7714002 0.8226608,2.3261449 0.5484406,0.54844 1.330126,0.82266 2.3450562,0.82266 1.0275381,0 1.8123756,-0.27422 2.354513,-0.82266 0.54844,-0.5484407 0.825213,-1.3206736 0.822659,-2.316689 L 11.158261,-4.61936e-7 Z"
     style="font-style:normal;font-variant:normal;font-weight:normal;font-stretch:normal;font-family:Roboto;-inkscape-font-specification:Roboto;fill:#69696e;fill-opacity:1;stroke-width:0.4841406"
     id="path905"
     inkscape:connector-curvature="0"
     sodipodi:nodetypes="cccccscccscscscc" />
</g>
<rect
   style="fill:#69696e;fill-opacity:1"
   height="1"
   ry="0.5"
   width="14"
   x="1"
   y="15"
   id="rect2" />
<rect
   id="rect908"
   y="13"
   x="1"
   width="14"
   ry="0.5"
   height="1"
   style="fill:#69696e;fill-opacity:1" />
</svg>
